X:12064
T:Northern Lights
C:J\"orgen "Dudde" Astner
R:reel
Z:id:hn-reel-781
Z:transcribed by Anders Clarh\"all, anders@natgeo.su.se
M:C|
K:G
G,2B,G, A,B,CA,|B,D~D2 EDCE|DG~G2 GBdB|BcBc AGED|
G,2B,G, A,B,CA,|B,D~D2 EDCE|DG~G2 GEDB,|CB,A,C B,G,G,2:||
|:BG~G2 GBdB|eBdB cBAc|BG~G2 GBdB|cBAc BGG2|
[1 BG~G2 GBdB|eBdB cBAF|GABG ABcA|dBAc BG~G2:|
[2 GABG ABcA|Bd~d2 edce|dg~g2 gedB|cBAc BGG2||


